X: 35615
T: Sadhbh Ni Bhruinneallaigh
R: jig
M: 6/8
K: Gmajor
Bdd dBd|eef edd|ded dBA|GAB GED||
GAG GED|GDG Bdd|edd BAG|~A2G EGG||

